static/img/kroki/415e1985057774a6ec85afca624d13c0.svg

<?xml version="1.0" encoding="us-ascii" standalone="no"?><svg xmlns="http://www.w3.org/2000/svg" xmlns:xlink="http://www.w3.org/1999/xlink" contentStyleType="text/css" height="252px" preserveAspectRatio="none" style="width:277px;height:252px;" version="1.1" viewBox="0 0 277 252" width="277px" zoomAndPan="magnify"><defs/><g><!--class aws_cloudformation_stack--><g id="elem_aws_cloudformation_stack"><rect codeLine="22" fill="#3D176E" height="39.7891" id="aws_cloudformation_stack" rx="2.5" ry="2.5" style="stroke:#000D19;stroke-width:0.5;" width="263" x="7" y="106.79"/><ellipse cx="22" cy="126.6845" fill="#ADD1B2" rx="11" ry="11" style="stroke:#181818;stroke-width:1.0;"/><path d="M24.9688,132.3252 Q24.3906,132.622 23.75,132.7627 Q23.1094,132.9189 22.4063,132.9189 Q19.9063,132.9189 18.5781,131.2783 Q17.2656,129.622 17.2656,126.497 Q17.2656,123.372 18.5781,121.7158 Q19.9063,120.0595 22.4063,120.0595 Q23.1094,120.0595 23.75,120.2158 Q24.4063,120.372 24.9688,120.6689 L24.9688,123.3877 Q24.3438,122.8095 23.75,122.5439 Q23.1563,122.2627 22.5313,122.2627 Q21.1875,122.2627 20.5,123.3408 Q19.8125,124.4033 19.8125,126.497 Q19.8125,128.5908 20.5,129.6689 Q21.1875,130.7314 22.5313,130.7314 Q23.1563,130.7314 23.75,130.4658 Q24.3438,130.1845 24.9688,129.6064 L24.9688,132.3252 Z " fill="#000000"/><text fill="#D9B8FF" font-family="Helvetica" font-size="17" lengthAdjust="spacing" textLength="221" x="41" y="132.5698">aws_cloudformation_stack</text></g><!--class aws_region--><g id="elem_aws_region"><rect codeLine="24" fill="#3D176E" height="39.7891" id="aws_region" rx="2.5" ry="2.5" style="stroke:#000D19;stroke-width:0.5;" width="137" x="70" y="7"/><ellipse cx="85" cy="26.8945" fill="#ADD1B2" rx="11" ry="11" style="stroke:#181818;stroke-width:1.0;"/><path d="M87.9688,32.5352 Q87.3906,32.832 86.75,32.9727 Q86.1094,33.1289 85.4063,33.1289 Q82.9063,33.1289 81.5781,31.4883 Q80.2656,29.832 80.2656,26.707 Q80.2656,23.582 81.5781,21.9258 Q82.9063,20.2695 85.4063,20.2695 Q86.1094,20.2695 86.75,20.4258 Q87.4063,20.582 87.9688,20.8789 L87.9688,23.5977 Q87.3438,23.0195 86.75,22.7539 Q86.1563,22.4727 85.5313,22.4727 Q84.1875,22.4727 83.5,23.5508 Q82.8125,24.6133 82.8125,26.707 Q82.8125,28.8008 83.5,29.8789 Q84.1875,30.9414 85.5313,30.9414 Q86.1563,30.9414 86.75,30.6758 Q87.3438,30.3945 87.9688,29.8164 L87.9688,32.5352 Z " fill="#000000"/><text fill="#D9B8FF" font-family="Helvetica" font-size="17" lengthAdjust="spacing" textLength="95" x="104" y="32.7798">aws_region</text></g><!--class aws_resource--><g id="elem_aws_resource"><rect codeLine="26" fill="#3D176E" height="39.7891" id="aws_resource" rx="2.5" ry="2.5" style="stroke:#000D19;stroke-width:0.5;" width="155" x="61" y="206.58"/><ellipse cx="76" cy="226.4745" fill="#ADD1B2" rx="11" ry="11" style="stroke:#181818;stroke-width:1.0;"/><path d="M78.9688,232.1152 Q78.3906,232.412 77.75,232.5527 Q77.1094,232.7089 76.4063,232.7089 Q73.9063,232.7089 72.5781,231.0683 Q71.2656,229.412 71.2656,226.287 Q71.2656,223.162 72.5781,221.5058 Q73.9063,219.8495 76.4063,219.8495 Q77.1094,219.8495 77.75,220.0058 Q78.4063,220.162 78.9688,220.4589 L78.9688,223.1777 Q78.3438,222.5995 77.75,222.3339 Q77.1563,222.0527 76.5313,222.0527 Q75.1875,222.0527 74.5,223.1308 Q73.8125,224.1933 73.8125,226.287 Q73.8125,228.3808 74.5,229.4589 Q75.1875,230.5214 76.5313,230.5214 Q77.1563,230.5214 77.75,230.2558 Q78.3438,229.9745 78.9688,229.3964 L78.9688,232.1152 Z " fill="#000000"/><text fill="#D9B8FF" font-family="Helvetica" font-size="17" lengthAdjust="spacing" textLength="113" x="95" y="232.3598">aws_resource</text></g><!--link aws_cloudformation_stack to aws_resource--><g id="link_aws_cloudformation_stack_aws_resource"><path codeLine="28" d="M138.5,147.01 C138.5,164.15 138.5,183.06 138.5,200.2 " fill="none" id="aws_cloudformation_stack-to-aws_resource" style="stroke:#1A83AF;stroke-width:2.0;"/><polygon fill="#1A83AF" points="138.5,206.2,142.5,197.2,138.5,201.2,134.5,197.2,138.5,206.2" style="stroke:#1A83AF;stroke-width:2.0;"/></g><!--link aws_region to aws_cloudformation_stack--><g id="link_aws_region_aws_cloudformation_stack"><path codeLine="29" d="M138.5,47.22 C138.5,64.36 138.5,83.27 138.5,100.41 " fill="none" id="aws_region-to-aws_cloudformation_stack" style="stroke:#1A83AF;stroke-width:2.0;"/><polygon fill="#1A83AF" points="138.5,106.41,142.5,97.41,138.5,101.41,134.5,97.41,138.5,106.41" style="stroke:#1A83AF;stroke-width:2.0;"/></g><!--SRC=[XP3DJy904CNl_1MRS2QXDWfSJ2e9qGinuiqOCdHdwQRj3fcTIj3ulyk7cgNBn_MztxnvCuNLgB1UoKRLM2-GVSUNrgs0eLOPCwt7L16hhZ5Wqa7Rd92Jgy0KQbIFM7sWs1pQn6jXyzAXz-eci1uWBvTCZTE7U65mVckXau0QL-1z9i9sqGW6PVHeCJIcJRP3kwbE1dSOOSGQ-HVfz_iw6RMHgwiktlrFpEmdgYHysfG4evhHYZrriUME24f6X_xvPpi-WzRMBTLjeBqSEh53Fj9d1MXQxsW3bG_NU456aiqAnz5LE1fgCpW9Fvs3yztd5ApzFA-eqOQu1h7avbws4-ghynqWZCkj5OcU6ivnBvyDwhrrasoOPfFttltHM2S8Zg1JKJy0]--></g></svg>

<svg xmlns="http://www.w3.org/2000/svg" width="277" height="252" viewBox="0 0 277 252"><rect width="263" height="39.789" x="7" y="106.79" fill="#3D176E" rx="2.5" ry="2.5" style="stroke:#000d19;stroke-width:.5"/><circle cx="22" cy="126.684" r="11" fill="#ADD1B2" style="stroke:#181818;stroke-width:1"/><path d="M24.969 132.325q-.578.297-1.219.438-.64.156-1.344.156-2.5 0-3.828-1.64-1.312-1.657-1.312-4.782t1.312-4.781q1.328-1.656 3.828-1.656.703 0 1.344.156.656.156 1.219.453v2.719q-.625-.579-1.219-.844-.594-.281-1.219-.281-1.343 0-2.031 1.078-.687 1.062-.687 3.156t.687 3.172q.688 1.062 2.031 1.062.625 0 1.219-.265.594-.281 1.219-.86z"/><text x="41" y="132.57" fill="#D9B8FF" font-family="Helvetica" font-size="17" textLength="221">aws_cloudformation_stack</text><rect width="137" height="39.789" x="70" y="7" fill="#3D176E" rx="2.5" ry="2.5" style="stroke:#000d19;stroke-width:.5"/><circle cx="85" cy="26.895" r="11" fill="#ADD1B2" style="stroke:#181818;stroke-width:1"/><path d="M87.969 32.535q-.578.297-1.219.438-.64.156-1.344.156-2.5 0-3.828-1.64-1.312-1.657-1.312-4.782t1.312-4.781q1.328-1.656 3.828-1.656.703 0 1.344.156.656.156 1.219.453v2.719q-.625-.578-1.219-.844-.594-.281-1.219-.281-1.344 0-2.031 1.078-.687 1.062-.687 3.156t.687 3.172q.688 1.062 2.031 1.062.625 0 1.219-.265.594-.281 1.219-.86z"/><text x="104" y="32.78" fill="#D9B8FF" font-family="Helvetica" font-size="17" textLength="95">aws_region</text><rect width="155" height="39.789" x="61" y="206.58" fill="#3D176E" rx="2.5" ry="2.5" style="stroke:#000d19;stroke-width:.5"/><circle cx="76" cy="226.475" r="11" fill="#ADD1B2" style="stroke:#181818;stroke-width:1"/><path d="M78.969 232.115q-.578.297-1.219.438-.64.156-1.344.156-2.5 0-3.828-1.64-1.312-1.657-1.312-4.782t1.312-4.781q1.328-1.656 3.828-1.656.703 0 1.344.156.656.156 1.219.453v2.719q-.625-.578-1.219-.844-.594-.281-1.219-.281-1.344 0-2.031 1.078-.687 1.062-.687 3.156t.687 3.172q.688 1.062 2.031 1.062.625 0 1.219-.265.594-.281 1.219-.86z"/><text x="95" y="232.36" fill="#D9B8FF" font-family="Helvetica" font-size="17" textLength="113">aws_resource</text><path fill="none" d="M138.5 147.01v53.19" style="stroke:#1a83af;stroke-width:2"/><path fill="#1A83AF" d="m138.5 206.2 4-9-4 4-4-4z" style="stroke:#1a83af;stroke-width:2"/><path fill="none" d="M138.5 47.22v53.19" style="stroke:#1a83af;stroke-width:2"/><path fill="#1A83AF" d="m138.5 106.41 4-9-4 4-4-4z" style="stroke:#1a83af;stroke-width:2"/></svg>
